tools/download-figma-icons/icons/outlined-large/press.svg

<svg width="64" height="64" viewBox="0 0 64 64" fill="none" xmlns="http://www.w3.org/2000/svg">
<path fill-rule="evenodd" clip-rule="evenodd" d="M56.4 56.9968C58.937 56.9968 61 54.9108 61 52.3468V6.99976H16V51.4998C16 53.7218 15.449 55.5878 14.439 56.9998L56.4 56.9968ZM14.5 3.99976H62.5C63.328 3.99976 64 4.67176 64 5.49976V52.3468C64 56.5658 60.591 59.9968 56.4 59.9968L8.5 59.9998H8.001H8H7.999C3.588 59.9988 0 56.4118 0 52.0048V23.4998C0 22.6718 0.672 21.9998 1.5 21.9998H8.5C9.328 21.9998 10 22.6718 10 23.4998C10 24.3278 9.328 24.9998 8.5 24.9998H3V52.0048C3 54.7588 5.243 56.9998 8.001 56.9998C12.133 56.9998 13 54.0088 13 51.4998V5.49976C13 4.67176 13.672 3.99976 14.5 3.99976ZM54 39.0001H46V25.0001H54V39.0001ZM44.5 22.0001H55.5C56.328 22.0001 57 22.6721 57 23.5001V40.5001C57 41.3281 56.328 42.0001 55.5 42.0001H44.5C43.672 42.0001 43 41.3281 43 40.5001V23.5001C43 22.6721 43.672 22.0001 44.5 22.0001ZM21.5 28.0001H37.5C38.328 28.0001 39 27.3281 39 26.5001C39 25.6721 38.328 25.0001 37.5 25.0001H21.5C20.672 25.0001 20 25.6721 20 26.5001C20 27.3281 20.672 28.0001 21.5 28.0001ZM37.5 35.0001H21.5C20.672 35.0001 20 34.3281 20 33.5001C20 32.6721 20.672 32.0001 21.5 32.0001H37.5C38.328 32.0001 39 32.6721 39 33.5001C39 34.3281 38.328 35.0001 37.5 35.0001ZM21.5 42.0001H37.5C38.328 42.0001 39 41.3281 39 40.5001C39 39.6721 38.328 39.0001 37.5 39.0001H21.5C20.672 39.0001 20 39.6721 20 40.5001C20 41.3281 20.672 42.0001 21.5 42.0001ZM55.5 18.0001H21.5C20.672 18.0001 20 17.3281 20 16.5001C20 15.6721 20.672 15.0001 21.5 15.0001H55.5C56.328 15.0001 57 15.6721 57 16.5001C57 17.3281 56.328 18.0001 55.5 18.0001Z" fill="black"/>
</svg>

<svg width="64" height="64" viewBox="0 0 64 64" fill="none" xmlns="http://www.w3.org/2000/svg"><path fill-rule="evenodd" clip-rule="evenodd" d="M56.4 56.997c2.537 0 4.6-2.086 4.6-4.65V7H16v44.5c0 2.222-.551 4.088-1.561 5.5l41.961-.003ZM14.5 4h48A1.5 1.5 0 0 1 64 5.5v46.847c0 4.219-3.409 7.65-7.6 7.65L8.5 60h-.501C3.588 59.999 0 56.412 0 52.005V23.5A1.5 1.5 0 0 1 1.5 22h7a1.5 1.5 0 0 1 0 3H3v27.005A5.004 5.004 0 0 0 8.001 57C12.133 57 13 54.009 13 51.5v-46A1.5 1.5 0 0 1 14.5 4ZM54 39h-8V25h8v14Zm-9.5-17h11a1.5 1.5 0 0 1 1.5 1.5v17a1.5 1.5 0 0 1-1.5 1.5h-11a1.5 1.5 0 0 1-1.5-1.5v-17a1.5 1.5 0 0 1 1.5-1.5Zm-23 6h16a1.5 1.5 0 0 0 0-3h-16a1.5 1.5 0 0 0 0 3Zm16 7h-16a1.5 1.5 0 0 1 0-3h16a1.5 1.5 0 0 1 0 3Zm-16 7h16a1.5 1.5 0 0 0 0-3h-16a1.5 1.5 0 0 0 0 3Zm34-24h-34a1.5 1.5 0 0 1 0-3h34a1.5 1.5 0 0 1 0 3Z" fill="currentColor"/></svg>
